X:1
T:[ID 1-17]
T:[ID 1-17]
T:Bezeichnung standardisiert: Menuett Men\"uet \"Ahnlich in anderer Quelle: 97. Menu\´uet - Hs. Bolhuis 1730 ca. (Anm. S. Wascher);
T:Urheber unbekannt Erstbeleg: 1730 (Datum in der schriftlichen Quelle) Datum in der hier transkribierten schriftlichen Quelle: vermutlich vor 1767
C:Urheber unbekannt
C:Erstbeleg: 1730 (Datum in der schriftlichen Quelle)
C:Datum in der hier transkribierten schriftlichen Quelle: vermutlich vor 1767
L:1/8
M:4/4
K:G
V:1 treble 
V:1
 GDADBD | c2 B2 A2 | d2 cBAG | F2 EF D2 | GDADBD | c2 B2 A2 | d2 cBAB | G6 :: dAeAfA | g2 f2 e2 | %10
 a2 gfed | ^c2 Bc A2 | dAeAfA | g2 f2 e2 | a2 gfef | d6 | dggggg | BGBdgg | dggggg | BGBdgg | %20
 GDADBD | c2 B2 A2 | d2 cBAB | G6 :| %24

